img/close.svg

<svg fill="none" height="24" viewBox="0 0 24 24" width="24" xmlns="http://www.w3.org/2000/svg"><path d="m18.3002 5.70997c-.39-.39-1.02-.39-1.41 0l-4.89 4.88003-4.88998-4.89003c-.39-.39-1.02001-.39-1.41001 0s-.39 1.02 0 1.41l4.88999 4.89003-4.88999 4.89c-.39.39-.39 1.02 0 1.41s1.02001.39 1.41001 0l4.88998-4.89 4.89 4.89c.39.39 1.02.39 1.41 0s.39-1.02 0-1.41l-4.89-4.89 4.89-4.89003c.38-.38.38-1.02 0-1.4z" fill="#fff"/></svg>

<svg width="24" height="24" viewBox="0 0 24 24" fill="none" xmlns="http://www.w3.org/2000/svg">
<path d="M18.3002 5.70997C17.9102 5.31997 17.2802 5.31997 16.8902 5.70997L12.0002 10.59L7.11022 5.69997C6.72022 5.30997 6.09021 5.30997 5.70021 5.69997C5.31021 6.08997 5.31021 6.71997 5.70021 7.10997L10.5902 12L5.70021 16.89C5.31021 17.28 5.31021 17.91 5.70021 18.3C6.09021 18.69 6.72022 18.69 7.11022 18.3L12.0002 13.41L16.8902 18.3C17.2802 18.69 17.9102 18.69 18.3002 18.3C18.6902 17.91 18.6902 17.28 18.3002 16.89L13.4102 12L18.3002 7.10997C18.6802 6.72997 18.6802 6.08997 18.3002 5.70997Z" fill="white"/>
</svg>
